X:165
T: A otworzze mi otworz Anusiu moja
N: K0041a
O: od Gostynina i Kowala
N: Piesn wpleciona w opowiesc typu "Piekna i bestia"
R: dumy i piesni]
M: 3/4
L: 1/8
K: A
=cee2e2 | d=fe3d | =cee2e2 | d4B2 |
=ccB2c2 | d=fed=cB |
ccB2c2 | d=fed=cB |
ccB3G | A3=cdB |
ccB2G2 | A6

@@@ Tune index: 3140
